assets/microsoft.svg

<svg width="193" height="42" viewBox="0 0 193 42" fill="none" xmlns="http://www.w3.org/2000/svg">
<path d="M192.953 18.8756V15.4384H188.739V10.0953L188.597 10.1396L184.639 11.366L184.561 11.39V15.4388H178.314V13.1838C178.314 12.1338 178.546 11.3297 179.003 10.7936C179.456 10.264 180.105 9.99486 180.933 9.99486C181.528 9.99486 182.144 10.1369 182.764 10.4171L182.92 10.487V6.86738L182.847 6.84027C182.268 6.62951 181.481 6.52337 180.506 6.52337C179.277 6.52337 178.16 6.79446 177.186 7.33129C176.212 7.86889 175.445 8.63635 174.908 9.61266C174.373 10.5874 174.102 11.7134 174.102 12.9593V15.4388H171.167V18.8759H174.102V33.3556H178.314V18.8756H184.561V28.0774C184.561 31.8673 186.326 33.7882 189.806 33.7882C190.378 33.7882 190.98 33.7199 191.595 33.587C192.221 33.4507 192.646 33.3144 192.897 33.1685L192.953 33.1357V29.6665L192.781 29.7811C192.553 29.9361 192.268 30.0617 191.934 30.1552C191.599 30.2507 191.319 30.2988 191.102 30.2988C190.287 30.2988 189.684 30.0762 189.309 29.6371C188.93 29.1942 188.739 28.4191 188.739 27.3347V18.8756H192.953ZM161.76 30.2996C160.232 30.2996 159.026 29.7856 158.177 28.7742C157.322 27.7574 156.889 26.308 156.889 24.4665C156.889 22.567 157.322 21.0798 158.177 20.0451C159.027 19.0172 160.221 18.4957 161.726 18.4957C163.187 18.4957 164.35 18.9939 165.182 19.9771C166.019 20.966 166.444 22.441 166.444 24.3631C166.444 26.3084 166.044 27.8032 165.257 28.8028C164.475 29.7952 163.298 30.2996 161.76 30.2996ZM161.948 15.007C159.031 15.007 156.714 15.8726 155.063 17.5801C153.412 19.2879 152.575 21.6506 152.575 24.6044C152.575 27.4096 153.392 29.6661 155.004 31.3099C156.615 32.9547 158.808 33.7879 161.521 33.7879C164.349 33.7879 166.62 32.9097 168.271 31.1789C169.922 29.4493 170.758 27.1087 170.758 24.2241C170.758 21.3749 169.973 19.1016 168.425 17.4686C166.875 15.8351 164.696 15.007 161.948 15.007ZM145.783 15.007C143.799 15.007 142.158 15.5209 140.904 16.5343C139.643 17.5537 139.003 18.8912 139.003 20.5094C139.003 21.3505 139.141 22.0977 139.413 22.7315C139.686 23.3673 140.11 23.927 140.672 24.397C141.23 24.8629 142.091 25.3512 143.232 25.8479C144.191 26.2477 144.907 26.586 145.361 26.8525C145.806 27.1137 146.121 27.3764 146.299 27.6322C146.472 27.8823 146.56 28.2248 146.56 28.6478C146.56 29.8517 145.67 30.437 143.839 30.437C143.16 30.437 142.385 30.2938 141.536 30.0105C140.693 29.7314 139.898 29.3228 139.178 28.799L139.003 28.6723V32.7799L139.067 32.8104C139.663 33.0891 140.415 33.3236 141.3 33.5087C142.185 33.6939 142.987 33.7882 143.685 33.7882C145.838 33.7882 147.572 33.2716 148.837 32.2518C150.11 31.2255 150.756 29.8567 150.756 28.182C150.756 26.9743 150.408 25.9388 149.724 25.1034C149.044 24.2749 147.864 23.5143 146.217 22.8419C144.906 22.3089 144.066 21.8663 143.719 21.5265C143.385 21.1982 143.215 20.7343 143.215 20.1466C143.215 19.6255 143.425 19.2081 143.855 18.8698C144.288 18.53 144.891 18.3571 145.647 18.3571C146.349 18.3571 147.067 18.4693 147.781 18.6892C148.495 18.9095 149.122 19.2043 149.645 19.5647L149.817 19.6839V15.7874L149.751 15.7584C149.268 15.5488 148.632 15.3697 147.858 15.2239C147.089 15.0799 146.391 15.007 145.783 15.007ZM128.022 30.2992C126.493 30.2992 125.288 29.7856 124.438 28.7742C123.583 27.7574 123.151 26.3084 123.151 24.4665C123.151 22.567 123.584 21.0798 124.439 20.0451C125.288 19.0172 126.482 18.4957 127.988 18.4957C129.448 18.4957 130.611 18.9939 131.444 19.9771C132.28 20.966 132.705 22.441 132.705 24.3631C132.705 26.3084 132.306 27.8032 131.518 28.8028C130.736 29.7952 129.56 30.2992 128.022 30.2992ZM128.21 15.007C125.292 15.007 122.975 15.8726 121.324 17.5801C119.674 19.2879 118.836 21.6506 118.836 24.6044C118.836 27.4107 119.654 29.6661 121.265 31.3099C122.877 32.9547 125.07 33.7879 127.783 33.7879C130.61 33.7879 132.881 32.9097 134.532 31.1789C136.183 29.4493 137.02 27.1087 137.02 24.2241C137.02 21.3749 136.235 19.1016 134.686 17.4686C133.136 15.8351 130.957 15.007 128.21 15.007ZM112.442 18.5415V15.4384H108.281V33.3556H112.442V24.1905C112.442 22.6319 112.791 21.3517 113.479 20.3845C114.159 19.4288 115.064 18.9451 116.17 18.9451C116.545 18.9451 116.966 19.0073 117.421 19.1314C117.872 19.2543 118.199 19.388 118.392 19.5285L118.566 19.6568V15.4079L118.499 15.3785C118.111 15.2116 117.563 15.1276 116.869 15.1276C115.824 15.1276 114.888 15.4678 114.087 16.1379C113.383 16.7267 112.875 17.5342 112.486 18.5415H112.442ZM100.83 15.007C98.9208 15.007 97.2181 15.4216 95.7695 16.2387C94.3182 17.0577 93.1961 18.2276 92.4327 19.7148C91.6724 21.1985 91.2868 22.9312 91.2868 24.864C91.2868 26.5566 91.6607 28.1102 92.4003 29.4794C93.1403 30.8509 94.1882 31.9238 95.5139 32.6676C96.8382 33.411 98.3682 33.7882 100.063 33.7882C102.04 33.7882 103.729 33.3873 105.082 32.5981L105.137 32.566V28.7047L104.962 28.8341C104.339 29.2914 103.653 29.6532 102.926 29.9078C102.191 30.1675 101.52 30.2992 100.932 30.2992C99.3001 30.2992 97.9894 29.7814 97.0376 28.7616C96.0839 27.7399 95.6006 26.3057 95.6006 24.5005C95.6006 22.6842 96.105 21.2131 97.0987 20.1272C98.0889 19.0451 99.4018 18.496 101.001 18.496C102.369 18.496 103.701 18.9649 104.962 19.8916L105.137 20.0199V15.9516L105.08 15.9191C104.606 15.6503 103.959 15.4281 103.155 15.2597C102.356 15.0917 101.573 15.007 100.83 15.007ZM88.4204 15.4384H84.2596V33.3556H88.4208L88.4204 15.4384ZM86.3826 7.80589C85.6981 7.80589 85.101 8.04186 84.6098 8.50996C84.1171 8.9796 83.8672 9.57027 83.8672 10.2675C83.8672 10.9536 84.1141 11.5336 84.6023 11.9902C85.087 12.4457 85.686 12.6767 86.3826 12.6767C87.0792 12.6767 87.6805 12.4457 88.1713 11.991C88.6651 11.5336 88.9158 10.9536 88.9158 10.2675C88.9158 9.59433 88.6719 9.00938 88.1916 8.52867C87.7118 8.04911 87.1034 7.80589 86.3826 7.80589ZM76.0013 14.1166V33.3556H80.2473V8.35457H74.3706L66.9002 26.9243L59.6506 8.35457H53.5342V33.3556H57.5246V14.1147H57.6618L65.317 33.3553H68.3285L75.8638 14.1166H76.0013Z" fill="white" fill-opacity="0.2"/>
<path d="M19.574 19.8267H0V0H19.574V19.8267Z" fill="white" fill-opacity="0.2"/>
<path d="M41.1859 19.8267H21.6122V0H41.1859V19.8267Z" fill="white" fill-opacity="0.2"/>
<path d="M19.5733 41.7251H0V21.8988H19.5733V41.7251Z" fill="white" fill-opacity="0.2"/>
<path d="M41.1859 41.7251H21.6122V21.8988H41.1859V41.7251Z" fill="white" fill-opacity="0.2"/>
</svg>

<svg width="193" height="42" fill="none" xmlns="http://www.w3.org/2000/svg"><path d="M192.953 18.876v-3.438h-4.214v-5.343l-.142.045-3.958 1.226-.078.024v4.049h-6.247v-2.255c0-1.05.232-1.854.689-2.39.453-.53 1.102-.8 1.93-.8.595 0 1.211.143 1.831.423l.156.07v-3.62l-.073-.027c-.579-.21-1.366-.317-2.341-.317-1.229 0-2.346.271-3.32.808a5.711 5.711 0 0 0-2.278 2.282c-.535.974-.806 2.1-.806 3.346v2.48h-2.935v3.437h2.935v14.48h4.212v-14.48h6.247v9.201c0 3.79 1.765 5.711 5.245 5.711a8.5 8.5 0 0 0 1.789-.201c.626-.136 1.051-.273 1.302-.419l.056-.032v-3.47l-.172.115c-.228.155-.513.28-.847.374-.335.096-.615.144-.832.144-.815 0-1.418-.223-1.793-.662-.379-.443-.57-1.218-.57-2.302v-8.46h4.214ZM161.76 30.3c-1.528 0-2.734-.514-3.583-1.526-.855-1.017-1.288-2.466-1.288-4.308 0-1.899.433-3.386 1.288-4.42.85-1.029 2.044-1.55 3.549-1.55 1.461 0 2.624.498 3.456 1.481.837.989 1.262 2.464 1.262 4.386 0 1.945-.4 3.44-1.187 4.44-.782.992-1.959 1.497-3.497 1.497Zm.188-15.293c-2.917 0-5.234.866-6.885 2.573-1.651 1.708-2.488 4.07-2.488 7.024 0 2.806.817 5.062 2.429 6.706 1.611 1.645 3.804 2.478 6.517 2.478 2.828 0 5.099-.878 6.75-2.61 1.651-1.729 2.487-4.07 2.487-6.954 0-2.85-.785-5.122-2.333-6.755-1.55-1.634-3.729-2.462-6.477-2.462Zm-16.165 0c-1.984 0-3.625.514-4.879 1.527-1.261 1.02-1.901 2.357-1.901 3.975 0 .841.138 1.589.41 2.223a4.457 4.457 0 0 0 1.259 1.665c.558.466 1.419.954 2.56 1.45.959.4 1.675.739 2.129 1.005.445.262.76.524.938.78.173.25.261.593.261 1.016 0 1.204-.89 1.789-2.721 1.789-.679 0-1.454-.143-2.303-.427a8.605 8.605 0 0 1-2.358-1.211l-.175-.127v4.108l.064.03c.596.28 1.348.514 2.233.699.885.185 1.687.28 2.385.28 2.153 0 3.887-.517 5.152-1.537 1.273-1.027 1.919-2.395 1.919-4.07 0-1.208-.348-2.243-1.032-3.079-.68-.828-1.86-1.589-3.507-2.261-1.311-.533-2.151-.976-2.498-1.316-.334-.328-.504-.792-.504-1.38 0-.52.21-.938.64-1.276.433-.34 1.036-.513 1.792-.513.702 0 1.42.112 2.134.332.714.22 1.341.515 1.864.876l.172.119v-3.897l-.066-.029c-.483-.21-1.119-.388-1.893-.534a11.45 11.45 0 0 0-2.075-.217Zm-17.761 15.292c-1.529 0-2.734-.513-3.584-1.525-.855-1.017-1.287-2.466-1.287-4.308 0-1.899.433-3.386 1.288-4.42.849-1.029 2.043-1.55 3.549-1.55 1.46 0 2.623.498 3.456 1.481.836.989 1.261 2.464 1.261 4.386 0 1.945-.399 3.44-1.187 4.44-.782.992-1.958 1.496-3.496 1.496Zm.188-15.292c-2.918 0-5.235.866-6.886 2.573-1.65 1.708-2.488 4.07-2.488 7.024 0 2.807.818 5.062 2.429 6.706 1.612 1.645 3.805 2.478 6.518 2.478 2.827 0 5.098-.878 6.749-2.61 1.651-1.729 2.488-4.07 2.488-6.954 0-2.85-.785-5.122-2.334-6.755-1.55-1.634-3.729-2.462-6.476-2.462Zm-15.768 3.534v-3.103h-4.161v17.918h4.161V24.19c0-1.558.349-2.838 1.037-3.806.68-.955 1.585-1.439 2.691-1.439.375 0 .796.062 1.251.186.451.123.778.257.971.398l.174.128v-4.25l-.067-.028c-.388-.167-.936-.251-1.63-.251-1.045 0-1.981.34-2.782 1.01-.704.589-1.212 1.396-1.601 2.403h-.044Zm-11.612-3.534c-1.91 0-3.612.415-5.06 1.232a8.25 8.25 0 0 0-3.337 3.476c-.76 1.483-1.146 3.216-1.146 5.149 0 1.693.374 3.246 1.113 4.615.74 1.372 1.788 2.445 3.114 3.189 1.324.743 2.854 1.12 4.549 1.12 1.977 0 3.666-.4 5.019-1.19l.055-.032v-3.861l-.175.13a7.795 7.795 0 0 1-2.036 1.073c-.735.26-1.406.391-1.994.391-1.632 0-2.943-.518-3.894-1.537-.954-1.022-1.437-2.456-1.437-4.262 0-1.816.504-3.287 1.498-4.373.99-1.082 2.303-1.631 3.902-1.631 1.368 0 2.7.469 3.961 1.396l.175.128v-4.068l-.057-.033c-.474-.269-1.121-.49-1.925-.66a11.35 11.35 0 0 0-2.325-.252Zm-12.41.431h-4.16v17.918h4.16V15.438Zm-2.037-7.632a2.49 2.49 0 0 0-1.773.704 2.339 2.339 0 0 0-.743 1.758c0 .686.247 1.266.735 1.722.485.456 1.084.687 1.78.687.697 0 1.298-.231 1.79-.686a2.262 2.262 0 0 0 .744-1.723c0-.674-.244-1.259-.724-1.74-.48-.479-1.089-.722-1.81-.722ZM76 14.116v19.24h4.246V8.355H74.37l-7.47 18.57-7.25-18.57h-6.117v25h3.99v-19.24h.138l7.655 19.24h3.012l7.535-19.238H76Zm-56.426 5.711H0V0h19.574v19.827Zm21.612 0H21.612V0h19.574v19.827ZM19.573 41.725H0V21.9h19.573v19.826Zm21.613 0H21.612V21.9h19.574v19.826Z" fill="#fff" fill-opacity=".2"/></svg>
